X:107
T: FROEHLICH ZU SEIN IN EHREN
N: E1147
O: Europa, Mitteleuropa, Deutschland
R: Trink -, Zech - Lied
M: 4/4
L: 1/4
K: G
d | dddd | e2d
B | cBAA | G2z
d | dddd | e2d
B | cBAA | G2z
d | eedc | BBB
d | eedc | BBB
d | =fed^c | d2z
e | =fed^c | d2z
B | BABc | d2A
A | BABc | d2A
c | BBAA | G2z

